img/facebook-icon.svg

<svg width="32" height="32" viewBox="0 0 32 32" fill="none" xmlns="http://www.w3.org/2000/svg">
<path d="M31.9973 16C31.9973 7.16267 24.8347 0 15.9987 0C7.16267 0 0 7.16267 0 16C0 23.984 5.85067 30.6027 13.4987 31.8027V20.624H9.43733V15.9987H13.4987V12.4747C13.4987 8.464 15.888 6.24933 19.5413 6.24933C21.292 6.24933 23.1227 6.56133 23.1227 6.56133V10.4987H21.1067C19.12 10.4987 18.5 11.732 18.5 12.9973V16H22.9373L22.228 20.6253H18.5V31.804C26.148 30.604 31.9987 23.9853 31.9987 16H31.9973Z" fill="white"/>
</svg>

<svg width="32" height="32" fill="none" xmlns="http://www.w3.org/2000/svg"><path d="M32 16a16 16 0 10-18.5 15.8V20.62H9.44V16h4.06v-3.53c0-4 2.39-6.22 6.04-6.22 1.75 0 3.58.31 3.58.31v3.94h-2.01c-1.99 0-2.61 1.23-2.61 2.5v3h4.44l-.71 4.63H18.5V31.8A16 16 0 0032 16z" fill="#fff"/></svg>
